!!!!SEGMENT: pl-wtm--r-730-38-m_moniuszko-stanislaw--latem-brzozka-mala.krn
!!!cenid: 18xx:1718
!!!COM: Moniuszko, Stanisław
!!!COM-rismid: pe30008351
!!!CDT: 1819/05/05-1872/06/04
!!!CNT: Polish
!!!OTL: Latem brzózka mała
!!!PDT:
!!!AGN: Secular
!!!SMS-siglum: PL-Wtm
!!!SMS-shelfmark: R 730/38/M
!!!SMS-shelfwork: W
!!!SMS-variant:
!!!SMS-altvar:
!!!NIFC-rismid: 1001099884
!!!URL-scan: http://repozytorium.nifc.pl/skany/pl-wtm-nut--r730m-1-43
!!!ONB-nifc: Skan 0042, R 730|38 (incpl.)
**kern	**kern	**dynam	**kern	**text	**dynam
*part3	*part2	*part2	*part1	*part1	*part1
*staff3	*staff2	*	*staff1	*staff1	*
*I"[Fortepian]	*I"[Fortepian]	*	*I"[Głos]	*	*
*	*I'pf	*	*I'V	*	*
*clefF4	*clefG2	*	*clefG2	*	*
*k[b-e-a-d-]	*k[b-e-a-d-]	*	*k[b-e-a-d-]	*	*
*f:	*f:	*	*f:	*	*
*M3/8	*M3/8	*	*M3/8	*	*
=1	=1	=1	=1	=1	=1
!	!	!	!LO:TX:t=P:problem:utwór niekompletny	!	!
!LO:TX:t=P:problem:4\, 2\, 8\right:global	!LO:TX:t=P:problem:4\, 2\, 8\right:global	!	!LO:TX:t=P:problem:4\, 2\, 8\right:global	!	!
(4D-\	8r	.	16b-/	mię,co	.
.	.	.	16g/	je-	.
.	8en/L 8B-/ 8G/	.	8en/	-sien-	.
8C\)	8en/J 8B-/ 8G/	.	8cc\	-ne	.
=2	=2	=2	=2	=2	=2
4FF/	8r	.	8b-/	sło-	.
.	8f/L 8c/ 8A-/	.	8a-/	-ty!	.
8r	8f/J 8c/ 8A-/	.	8r	.	.
=3	=3	=3	=3	=3	=3
4AA-/	8r	.	16cc\	Nie	.
.	.	.	16b-\	bój	.
.	8a-/L 8e-/ 8c/	.	8a-\	się	.
8r	8a-/J 8e-/ 8c/	.	8ff\	o	.
=4	=4	=4	=4	=4	=4
!	!	!	!LO:SIC:v:l:s=brzóz	!	!LO:DY:a
4E-\	8r	.	4ff\	brzoz-	>
.	8g/L 8d-/ 8B-/	.	.	.	.
8r	8g/J 8d-/ 8B-/	.	8dd-\	-ko,	]]
=5	=5	=5	=5	=5	=5
4AA-/	8r	.	16cc\	choć	.
.	.	.	16b-\	za	.
.	8a-/L 8e-/ 8c/	.	8a-\	wo-	.
!	!LO:SIC:v:n=1:s=8an	!	!	!	!
8r	8a-/J 8d#X/ 8Bn/	.	8ff\	-lą	.
=6	=6	=6	=6	=6	=6
!	!	!	!	!	!LO:DY:a
4EE-/	8r	.	4ff\	bos-	>
.	8a-/L 8d-/ 8B-/	.	.	.	.
8r	8g/J 8d-/ 8B-/	.	8ee-\	-ką	]]
=7	=7	=7	=7	=7	=7
4AA-/	8r	.	16ee-\	cie-	.
.	.	.	16dd-\	-bie	.
.	8a-/L 8c/ 8A-/	.	8dd-\	ja	.
8r	8a-/J 8e-/ 8c/	.	8cc\	po-	.
=8	=8	=8	=8	=8	=8
!	!	!	!	!	!LO:DY:a
4D-\	8r	.	4cc\	-rzu-	>
.	8b-/L 8f/ 8d-/	.	.	.	.
8r	8b-/J 8f/ 8d-/	.	8b-\	-cę	]]
=9	=9	=9	=9	=9	=9
4DD-/	8r	.	16cc\	zno-	.
.	.	.	16b-\	-wu	.
.	8a-/L 8f/ 8d-/	.	8a-\	do	.
8r	8b-/J 8f/ 8d-/	.	8b-\	cię	.
!!LO:LB:g=original
=10	=10	=10	=10	=10	=10
4C/ 4CC;/	4cc/: 4g/: 4en/: 4c/: 4G;:/	.	4cc;\	wró-	.
8ryy	8r	.	8b-/	-cę.	.
=11	=11	=11	=11	=11	=11
*^	*	*	*	*	*
[4.c/	16F\LL	16an/LL 16f/	.	16an/	Uj-	.
.	16F\J	16a/J 16f/	.	16g/	-rzym	.
.	8F\	8a/ 8f/	.	8f/	lu-	.
.	8F\J	8a/J 8f/	.	8ddn\	-bą	.
=12	=12	=12	=12	=12	=12	=12
16c/LL]	4.En\	4.b-/ 4.g^/	.	4ddn\	wios-	.
16c/J	.	.	.	.	.	.
8c/	.	.	.	.	.	.
8c/J	.	.	.	8cc\	-nę,	.
=13	=13	=13	=13	=13	=13	=13
!	!	!	!	!LO:SIC:t:v=wymazany kasownik	!	!
[4.c/	16F\LL	16a-/LL 16f/	.	16a-/	ja	.
.	16F\J	16a-/J 16f/	.	16g/	zie-	.
.	8F\	8a-/ 8f/	.	8f/	-leń-	.
!	!	!	!	!LO:SIC:t:v=wymazany kasownik	!	!
.	8F\J	8a-/J 8f/	.	8dd-\	-szy	.
=14	=14	=14	=14	=14	=14	=14
!	!	!	!	!LO:SIC:t:v=wymazany kasownik	!	!
16c/LL]	4.En\	4.b-/ 4.g^/	.	4dd-\	wzro-	.
16c/J	.	.	.	.	.	.
8c/	.	.	.	.	.	.
8c/J	.	.	.	8cc\	-snę;	.
*v	*v	*	*	*	*	*
=15	=15	=15	=15	=15	=15
!	!	!	!	!	!LO:DY:a
16c/LL 16F/	16an/LL 16e-/	.	16cc\	bę-	<
!	!	!LO:HP:b	!	!	!
16c/J 16F/	16a/J 16e-/	<	16b-\	-dziem	.
8c/ 8F/	8a/ 8e-/	.	8a-/	zno-	.
8c/J 8F/	8a/J 8e-/	[	8gg-X\	-wu	[
=16	=16	=16	=16	=16	=16
!	!	!LO:DY:b	!	!	!LO:DY:a
4.B-\ 4.BB-\	4.b-/ 4.d-X/	sf	4ff\	z_-so	>
.	.	.	8dd-X\	-bą,	]]
=17	=17	=17	=17	=17	=17
!	!	!LO:DY:b	!	!	!LO:DY:rj:a
(4C/	8r	p	16cc/	bę-	p
.	.	.	16f/	-dę	.
.	8a-/L 8f/ 8c/	.	8.a-/	szu-	.
8CC/)	8g/J 8en/ 8B-/	.	.	.	.
.	.	.	16g/	-mieć	.
!!LO:LB:g=original
=18	=18	=18	=18	=18	=18
.	.	.	(8qg/	.	.
4FF'/	8r	.	8f/)	z-to	.
.	4f/ 4A-'/	.	8f/	-bą.	.
8r	.	.	8r	.	.
=19	=19	=19	=19	=19	=19
4BB-'/	8r	.	4.r	.	.
.	4f/ 4d-/ 4B-'/	.	.	.	.
8r	.	.	.	.	.
=20	=20	=20	=20	=20	=20
4.F/ 4.FF;</	4.a-/ 4.f/ 4.c;/	.	4.r;	.	.
=21||	=21||	=21||	=21||-	=21||	=21||
*	*^	*	*	*	*
4.r	16.a-/LL	4ryy	.	4.ryy	.	.
.	32g/JK	.	.	.	.	.
.	8f/	.	.	.	.	.
.	8dd-/J	8f\	.	.	.	.
=22	=22	=22	=22-	=22	=22	=22
16.C\LL	(<4dd-/	4.en\	.	4.ryy	.	.
32En\JK	.	.	.	.	.	.
8G\	.	.	.	.	.	.
8B-\J	8cc/)	.	.	.	.	.
=23	=23	=23	=23-	=23	=23	=23
8A-\	16.cc/LL	8f\	.	4.ryy	.	.
.	32a-/JK	.	.	.	.	.
8r	8f/	8r	.	.	.	.
8d-\ 8B-\	8ff/J	8f\	.	.	.	.
=24	=24	=24	=24-	=24	=24	=24
4c\ 4A-\ 4F;\	4.f;/	4.f\	.	4.ryy	.	.
8ryy	.	.	.	.	.	.
*	*v	*v	*	*	*	*
==	==	==	==	==	==
*-	*-	*-	*-	*-	*-
!!!system-decoration: [(s1,s2,s3)]
!!!RDF**kern: > = above
!!!RDF**kern: < = below
!!!EED: Leszek Kubiak
!!!EST: 2021-04-21
!!!ENC:Kamil Watkowski
!!!END:2021-04-02
